icons/hicolor/scalable/apps/pattern-software-management.svg

<svg version="1.1" viewBox="0 0 32 32" width="32" height="32" xmlns="http://www.w3.org/2000/svg">
 <g transform="matrix(.5 0 0 .5 0 8)">
  <g fill="#cdab8f">
   <path d="m8-6-6 10 6 2z"/>
   <path d="m56-6 6 10-6 2z"/>
   <rect x="8" y="-6" width="48" height="44" ry="0"/>
  </g>
  <rect x="8" y="-6" width="48" height="40" ry="0" fill="#dec7b4"/>
  <rect x="22" y="-6" width="34" height="40" fill="#73ba25"/>
  <rect x="22" y="34" width="34" height="4" fill="#54881b"/>
  <path d="m26 24v14h12v-14l-6 4z" fill="#63452c" opacity=".2"/>
  <path d="m8-6-2 16h26v-16z" fill="#dec7b4"/>
  <path d="m22 10h36l-2-16h-34z" fill="#73ba25"/>
  <rect x="6" y="10" width="26" height="2" fill="#cdab8f"/>
  <rect x="22" y="10" width="36" height="2" fill="#54881b"/>
 </g>
 <rect x="16" y="16" width="16" height="16" ry="1" fill="#f6f5f4"/>
 <path d="m23 17-0.77734 2.332c-0.09023 0.03387-0.17946 0.07034-0.26758 0.10938l-2.1973-1.0977-1.4141 1.4141 1.0996 2.1992c-0.04097 0.08741-0.07939 0.17599-0.11523 0.26562l-2.3281 0.77734v2l2.332 0.77734c0.03387 0.09023 0.07034 0.17946 0.10938 0.26758l-1.0977 2.1973 1.4141 1.4141 2.1992-1.0996c0.08741 0.04097 0.17599 0.0794 0.26562 0.11523l0.77734 2.3281h2l0.77734-2.332c0.09023-0.03387 0.17946-0.07034 0.26758-0.10938l2.1973 1.0977 1.4141-1.4141-1.0996-2.1992c0.04097-0.08741 0.0794-0.17599 0.11523-0.26562l2.3281-0.77734v-2l-2.332-0.77734c-0.03387-0.09023-0.07034-0.17946-0.10938-0.26758l1.0977-2.1973-1.4141-1.4141-2.1992 1.0996c-0.08741-0.04097-0.17599-0.0794-0.26562-0.11523l-0.77734-2.3281zm1 4c1.6569 0 3 1.3431 3 3s-1.3431 3-3 3-3-1.3431-3-3 1.3431-3 3-3z" fill="#3d3846"/>
</svg>

<?xml version="1.0" encoding="UTF-8" standalone="no"?>
<svg
   xmlns:dc="http://purl.org/dc/elements/1.1/"
   xmlns:cc="http://creativecommons.org/ns#"
   xmlns:rdf="http://www.w3.org/1999/02/22-rdf-syntax-ns#"
   xmlns:svg="http://www.w3.org/2000/svg"
   xmlns="http://www.w3.org/2000/svg"
   id="svg35"
   viewBox="0 0 32 32"
   version="1.1">
  <defs
     id="defs13">
    <linearGradient
       gradientUnits="userSpaceOnUse"
       y2="-22.041"
       y1="-.040987"
       x2="-50.45"
       x1="-50.45"
       id="a">
      <stop
         id="stop2"
         offset="0"
         stop-color="#1b887e" />
      <stop
         id="stop4"
         offset=".071429"
         stop-color="#1b887e" />
      <stop
         id="stop6"
         offset=".21429"
         stop-color="#25b9ab" />
      <stop
         id="stop8"
         offset=".46429"
         stop-color="#1b887e" />
      <stop
         id="stop10"
         offset="1"
         stop-color="#1b887e" />
    </linearGradient>
  </defs>
  <metadata
     id="metadata15">
    <rdf:RDF>
      <cc:Work
         rdf:about="">
        <dc:format>image/svg+xml</dc:format>
        <dc:type
           rdf:resource="http://purl.org/dc/dcmitype/StillImage" />
        <dc:creator>
          <cc:Agent>
            <dc:title>Jakub Steiner</dc:title>
          </cc:Agent>
        </dc:creator>
        <dc:source>http://jimmac.musichall.cz</dc:source>
        <cc:license
           rdf:resource="http://creativecommons.org/licenses/by-sa/2.0/" />
        <dc:title></dc:title>
        <dc:subject>
          <rdf:Bag>
            <rdf:li>apparmor</rdf:li>
            <rdf:li>novell</rdf:li>
          </rdf:Bag>
        </dc:subject>
      </cc:Work>
      <cc:License
         rdf:about="http://creativecommons.org/licenses/by-sa/2.0/">
        <cc:permits
           rdf:resource="http://web.resource.org/cc/Reproduction" />
        <cc:permits
           rdf:resource="http://web.resource.org/cc/Distribution" />
        <cc:requires
           rdf:resource="http://web.resource.org/cc/Notice" />
        <cc:requires
           rdf:resource="http://web.resource.org/cc/Attribution" />
        <cc:permits
           rdf:resource="http://web.resource.org/cc/DerivativeWorks" />
        <cc:requires
           rdf:resource="http://web.resource.org/cc/ShareAlike" />
      </cc:License>
    </rdf:RDF>
  </metadata>
  <g
     id="g897">
    <g
       transform="matrix(0.5,0,0,0.5,0,8)"
       id="g868">
      <path
         style="fill:#cdab8f"
         d="M 8,-6 2,4 8,6 Z"
         id="path846" />
      <path
         style="fill:#cdab8f"
         d="M 56,-6 62,4 56,6 Z"
         id="path848" />
      <rect
         style="fill:#cdab8f"
         x="8"
         y="-6"
         width="48"
         height="44"
         ry="0"
         id="rect850" />
      <rect
         style="fill:#dec7b4"
         x="8"
         y="-6"
         width="48"
         height="40"
         ry="0"
         id="rect852" />
      <rect
         style="fill:#73ba25"
         x="22"
         y="-6"
         width="34"
         height="40"
         id="rect854" />
      <rect
         style="fill:#54881b"
         x="22"
         y="34"
         width="34"
         height="4"
         id="rect856" />
      <path
         style="opacity:0.2;fill:#63452c"
         d="M 26,24 V 38 H 38 V 24 l -6,4 z"
         id="path858" />
      <path
         style="fill:#dec7b4"
         d="M 8,-6 6,10 H 32 V -6 Z"
         id="path860" />
      <path
         style="fill:#73ba25"
         d="M 22,10 H 58 L 56,-6 H 22 Z"
         id="path862" />
      <rect
         style="fill:#cdab8f"
         x="6"
         y="10"
         width="26"
         height="2"
         id="rect864" />
      <rect
         style="fill:#54881b"
         x="22"
         y="10"
         width="36"
         height="2"
         id="rect866" />
    </g>
  </g>
  <rect
     fill="#f6f5f4"
     id="rect31"
     ry="1"
     height="16"
     width="16"
     y="16"
     x="16" />
  <path
     id="path33"
     fill="#3d3846"
     d="m23 17-0.77734 2.332c-0.09023 0.03387-0.17946 0.07034-0.26758 0.10938l-2.1973-1.0977-1.4141 1.4141 1.0996 2.1992c-0.04097 0.08741-0.07939 0.17599-0.11523 0.26562l-2.3281 0.77734v2l2.332 0.77734c0.03387 0.09023 0.07034 0.17946 0.10938 0.26758l-1.0977 2.1973 1.4141 1.4141 2.1992-1.0996c0.08741 0.04097 0.17599 0.0794 0.26562 0.11523l0.77734 2.3281h2l0.77734-2.332c0.09023-0.03387 0.17946-0.07034 0.26758-0.10938l2.1973 1.0977 1.4141-1.4141-1.0996-2.1992c0.04097-0.08741 0.0794-0.17599 0.11523-0.26562l2.3281-0.77734v-2l-2.332-0.77734c-0.03387-0.09023-0.07034-0.17946-0.10938-0.26758l1.0977-2.1973-1.4141-1.4141-2.1992 1.0996c-0.08741-0.04097-0.17599-0.0794-0.26562-0.11523l-0.77734-2.3281zm1 4c1.6569 0 3 1.3431 3 3s-1.3431 3-3 3-3-1.3431-3-3 1.3431-3 3-3z" />
</svg>
